images/init3.svg

<svg width="40" height="40" viewBox="0 0 40 40" fill="none" xmlns="http://www.w3.org/2000/svg">
<circle cx="20" cy="20" r="20" fill="#F0F5FF"/>
<path fill-rule="evenodd" clip-rule="evenodd" d="M13.668 20.9271C12.3542 20.9271 11.2891 21.9922 11.2891 23.306C11.2891 24.6198 12.3542 25.6848 13.668 25.6848C14.9818 25.6848 16.0468 24.6198 16.0468 23.306C16.0468 21.9922 14.9818 20.9271 13.668 20.9271ZM21.0907 13.0418C21.3283 12.8029 21.7147 12.8018 21.9537 13.0394C22.1927 13.2771 22.1937 13.6635 21.9561 13.9025L19.9179 15.9599C19.6818 16.1972 19.299 16.1998 19.0597 15.9669L18.0513 14.984C17.8097 14.749 17.8043 14.3626 18.0393 14.121C18.2743 13.8794 18.6607 13.8741 18.9023 14.1091L19.4777 14.67L21.0907 13.0418ZM24.8633 17.376C25.7561 17.0669 26.1651 15.8081 25.6245 15.0332C25.3971 14.7073 25.397 14.2944 25.6245 13.9684C26.1651 13.1936 25.7561 11.9347 24.8633 11.6256C24.4877 11.4955 24.245 11.1615 24.2374 10.7641C24.2194 9.81951 23.1485 9.04143 22.2445 9.31612C21.8642 9.43171 21.4715 9.30417 21.2318 8.98711C20.662 8.2335 19.3383 8.23345 18.7684 8.98706C18.5287 9.30412 18.136 9.43176 17.7557 9.31617C16.8517 9.04143 15.7808 9.81946 15.7628 10.7641C15.7552 11.1615 15.5126 11.4955 15.1369 11.6256C14.2441 11.9346 13.835 13.1935 14.3756 13.9684C14.603 14.2943 14.6031 14.7072 14.3757 15.0332C13.835 15.808 14.244 17.0669 15.1369 17.376C15.5125 17.5061 15.7552 17.8401 15.7628 18.2375C15.7808 19.1821 16.8517 19.9602 17.7557 19.6854C18.136 19.5698 18.5286 19.6974 18.7684 20.0145C19.3383 20.7681 20.662 20.7681 21.2318 20.0145C21.4716 19.6974 21.8642 19.5698 22.2445 19.6854C23.1485 19.9602 24.2194 19.1821 24.2375 18.2375C24.245 17.8401 24.4876 17.5061 24.8633 17.376ZM20 11.0907C18.1167 11.0907 16.5899 12.6175 16.5899 14.5008C16.5899 16.3842 18.1167 17.911 20 17.911C21.8834 17.911 23.4102 16.3842 23.4102 14.5008C23.4102 12.6174 21.8834 11.0907 20 11.0907ZM15.2782 31.2232C15.4613 28.783 17.5152 26.8431 20.0001 26.8431C22.485 26.8431 24.5389 28.783 24.722 31.2232C24.7256 31.2685 24.7197 31.3142 24.7048 31.3572C24.6898 31.4002 24.6661 31.4396 24.6352 31.473C24.6042 31.5063 24.5667 31.5329 24.5249 31.551C24.4831 31.5691 24.4381 31.5784 24.3926 31.5782H15.6076C15.5621 31.5784 15.517 31.5691 15.4753 31.551C15.4335 31.5329 15.396 31.5063 15.365 31.473C15.334 31.4396 15.3103 31.4002 15.2954 31.3572C15.2805 31.3142 15.2746 31.2685 15.2782 31.2232ZM20 21.4777C18.5867 21.4777 17.4409 22.6234 17.4409 24.0368C17.4409 25.4502 18.5866 26.596 20 26.596C21.4134 26.596 22.5592 25.4502 22.5592 24.0368C22.5592 22.6234 21.4135 21.4777 20 21.4777ZM23.2586 27.1729C24.2801 27.9306 25.0338 29.035 25.3376 30.316H30.4151C30.4574 30.3162 30.4993 30.3076 30.5381 30.2908C30.577 30.274 30.6119 30.2493 30.6406 30.2182C30.6694 30.1872 30.6914 30.1506 30.7053 30.1106C30.7192 30.0706 30.7246 30.0282 30.7213 29.986C30.5511 27.7178 28.642 25.9146 26.3321 25.9146C25.1393 25.9146 24.0534 26.3954 23.2586 27.1729ZM9.27879 29.986C9.27544 30.0282 9.28088 30.0706 9.29476 30.1106C9.30865 30.1506 9.33068 30.1872 9.35947 30.2183C9.38825 30.2493 9.42316 30.274 9.46199 30.2908C9.50082 30.3076 9.54271 30.3162 9.58503 30.316H14.6626C14.9664 29.035 15.7201 27.9306 16.7415 27.1729C15.9467 26.3954 14.8608 25.9146 13.668 25.9146C11.3581 25.9146 9.44895 27.7178 9.27879 29.986ZM26.3321 20.9271C25.0183 20.9271 23.9532 21.9922 23.9532 23.306C23.9532 24.6198 25.0183 25.6848 26.3321 25.6848C27.6459 25.6848 28.711 24.6198 28.711 23.306C28.711 21.9922 27.6459 20.9271 26.3321 20.9271Z" fill="#BDD0EA"/>
</svg>

<svg width="40" height="40" fill="none" xmlns="http://www.w3.org/2000/svg"><circle cx="20" cy="20" r="20" fill="#F0F5FF"/><path fill-rule="evenodd" clip-rule="evenodd" d="M13.668 20.927a2.379 2.379 0 100 4.758 2.379 2.379 0 000-4.758zm7.423-7.885a.61.61 0 01.865.86l-2.038 2.058a.61.61 0 01-.858.007l-1.009-.983a.61.61 0 11.851-.875l.576.561 1.613-1.628zm3.772 4.334c.893-.31 1.302-1.568.762-2.343a.916.916 0 010-1.065c.54-.774.131-2.033-.762-2.342a.916.916 0 01-.626-.862c-.018-.944-1.088-1.723-1.992-1.448a.916.916 0 01-1.013-.329c-.57-.754-1.894-.754-2.464 0a.916.916 0 01-1.012.33c-.904-.276-1.975.502-1.993 1.447a.916.916 0 01-.626.862c-.893.309-1.302 1.568-.761 2.342a.916.916 0 010 1.065c-.541.775-.132 2.034.76 2.343.377.13.62.464.627.861.018.945 1.089 1.723 1.993 1.448a.916.916 0 011.012.33c.57.753 1.894.753 2.464 0a.916.916 0 011.012-.33c.904.275 1.975-.503 1.994-1.447a.916.916 0 01.625-.862zM20 11.091a3.41 3.41 0 100 6.82 3.41 3.41 0 000-6.82zm-4.722 20.132c.183-2.44 2.237-4.38 4.722-4.38 2.485 0 4.539 1.94 4.722 4.38a.33.33 0 01-.33.355h-8.784a.329.329 0 01-.33-.355zM20 21.478a2.56 2.56 0 100 5.118 2.56 2.56 0 000-5.118zm3.259 5.695a5.501 5.501 0 012.079 3.143h5.077a.306.306 0 00.306-.33 4.416 4.416 0 00-4.389-4.071c-1.193 0-2.279.48-3.073 1.258zm-13.98 2.813a.306.306 0 00.306.33h5.078a5.501 5.501 0 012.078-3.143 4.386 4.386 0 00-3.073-1.258 4.416 4.416 0 00-4.39 4.071zm17.053-9.059a2.379 2.379 0 100 4.758 2.379 2.379 0 000-4.758z" fill="#BDD0EA"/></svg>
